!!!OTL: Abschiedslied der nach Afrika ziehenden Soldaten.
!!!OTL-incipit: AUF AUF IHR BRUEDER UND SEID STARK
!!!COM: Ch. F. D. Schubart
!!!ARE: Europa, Mitteleuropa, Deutschland
!!!SCT: F0566
!!!TXL: @@DE
!!!YEM: Copyright 1995, estate of Helmut Schaffrath.
**kern	**text
*ICvox	*
*clefG2	*
*M4/4	*
*met(c)	*
*k[f#c#]	*
*D:	*
!LO:TX:a:t=Entſchloſſen.	!
{4a	1._Auf,
=1	=1
4.dd	auf,
8a	ihr
8aL	Brü-
8gJ	.
8f#L	-der,
8eJ	.
=2	=2
4d	und
4d	ſeid
4.d}	ſtark,
{8f#	der
=3	=3
(8eL	Abſchieds-
8aJ)	.
(8cc#L	.
8eeJ)	.
(8eeL	-tag
8ddJ)	.
(8cc#L	iſt
8bJ)	.
=4	=4
2a	da.
4r}	.
{(8aL	Schwer
8gJ)	.
=5	=5
4f#	liegt
4f#	er
4.f#	auf
8a	der
=6	=6
(8aL	See-
8gJ)	.
(8gL	-le
8f#J)	.
4.g}	ſchwer,
{8f#	wir
=7	=7
(8f#L	müſ-
8eJ)	.
4e	-ſen
4.e	ü-
8g	-ber
=8	=8
(8gL	Land
8f#J)	.
(8f#L	und
8eJ)	.
4.f#}	Meer,
{8a	in's
=9	=9
4.dd	hei-
8a	-ße
(8gL	A-
8f#J)	.
(8eL	-fri-
8dJ)	.
=10	=10
4.a	-ka
8r}	.
{2cc#	in's
=11	=11
4.dd	hei-
8b	-ße
(>8aL	A-
8gJ)	.
8f#L	-fri-
8eJ	.
=12	=12
4d	-ka.
4r	.
4r;}	.
==	==
!!!AGN: Soldaten - Lied, Abschied
!!!ONB: ESAC (Essen Associative Code) Database: FINK
!!!AMT: simple quadruple
!!!AIN: vox
!!!EED: Helmut Schaffrath
!!!EEV: 1.0
!!!RDF**kern: > = above
!!Text: Ch. F. D. Schubart
!!!source: Musikalischer Hausschatz der Deutschen. Eine Sammlung von über 1000 Liedern und Gesängen mit Singstimmen und Klavierbegleitung. Leipzig, Litterarisches Verlags-Haus.
!!!page: 367
!!!GTL: Soldaten- und Jaegerlieder
!!!URL-scan: https://www.digitale-sammlungen.de/en/view/bsb11144622?page=334
!!!ENC: Anna Maria Matuszewska
!!!EEV: 2024/08/02
*-	*-